static/assets/icons/alby_icon_green_dark.svg

<svg width="308" height="308" viewBox="0 0 308 308" fill="none" xmlns="http://www.w3.org/2000/svg">
<path d="M31 87C14.4315 87 1 73.5685 1 57C1 40.4315 14.4315 27 31 27C47.5685 27 61 40.4315 61 57C61 73.5685 47.5685 87 31 87Z" fill="#20B000"/>
<path d="M26 52.5L82 108.5" stroke="#20B000" stroke-width="15"/>
<path d="M276 87C292.569 87 306 73.5685 306 57C306 40.4315 292.569 27 276 27C259.431 27 246 40.4315 246 57C246 73.5685 259.431 87 276 87Z" fill="#20B000"/>
<path d="M281.5 52.5L225.5 108.5" stroke="#20B000" stroke-width="15"/>
<path fill-rule="evenodd" clip-rule="evenodd" d="M39.5156 236.019C23.3466 228.321 13.9364 211.036 17.0886 193.407C30.6178 117.747 87.0002 61 154.5 61C222.164 61 278.656 118.023 292.009 193.958C295.115 211.618 285.628 228.895 269.404 236.53C234.687 252.868 195.91 262 155 262C113.665 262 74.5075 252.677 39.5156 236.019Z" fill="#8EEB7A"/>
<path d="M292.009 193.958L299.396 192.659L292.009 193.958ZM269.404 236.53L266.21 229.744L269.404 236.53ZM24.4715 194.728C37.5443 121.62 91.5825 68.5 154.5 68.5V53.5C82.4179 53.5 23.6913 113.875 9.70571 192.087L24.4715 194.728ZM154.5 68.5C217.569 68.5 271.719 121.879 284.623 195.257L299.396 192.659C285.593 114.166 226.758 53.5 154.5 53.5V68.5ZM266.21 229.744C232.472 245.621 194.783 254.5 155 254.5V269.5C197.037 269.5 236.903 260.114 272.597 243.317L266.21 229.744ZM155 254.5C114.804 254.5 76.7456 245.436 42.7394 229.247L36.2918 242.791C72.2695 259.918 112.526 269.5 155 269.5V254.5ZM284.623 195.257C287.112 209.416 279.531 223.476 266.21 229.744L272.597 243.317C291.725 234.315 303.117 213.82 299.396 192.659L284.623 195.257ZM9.70571 192.087C5.92851 213.211 17.2298 233.716 36.2918 242.791L42.7394 229.247C29.4634 222.927 21.9444 208.86 24.4715 194.728L9.70571 192.087Z" fill="#20B000"/>
<path fill-rule="evenodd" clip-rule="evenodd" d="M68.365 217.209C55.3499 211.908 47.6294 198.06 52.1392 184.75C66.0473 143.704 106.618 114 154.5 114C202.383 114 242.953 143.704 256.861 184.75C261.371 198.06 253.651 211.908 240.636 217.209C214.053 228.035 184.973 234 154.5 234C124.027 234 94.9476 228.035 68.365 217.209Z" fill="#1C8C00"/>
<path d="M189 198C202.807 198 214 189.046 214 178C214 166.954 202.807 158 189 158C175.193 158 164 166.954 164 178C164 189.046 175.193 198 189 198Z" fill="white"/>
<path d="M117.432 198.012C131.239 198.012 142.432 189.058 142.432 178.012C142.432 166.966 131.239 158.012 117.432 158.012C103.625 158.012 92.432 166.966 92.432 178.012C92.432 189.058 103.625 198.012 117.432 198.012Z" fill="white"/>
</svg>

<svg xmlns="http://www.w3.org/2000/svg" width="308" height="308" fill="none"><path fill="#20B000" d="M31 87a30 30 0 1 1 0-60 30 30 0 0 1 0 60Z"/><path stroke="#20B000" stroke-width="15" d="m26 52.5 56 56"/><path fill="#20B000" d="M276 87a30 30 0 1 0 0-60 30 30 0 0 0 0 60Z"/><path stroke="#20B000" stroke-width="15" d="m281.5 52.5-56 56"/><path fill="#8EEB7A" fill-rule="evenodd" d="M39.52 236.02c-16.17-7.7-25.58-24.98-22.43-42.61C30.62 117.75 87 61 154.5 61c67.66 0 124.16 57.02 137.5 132.96 3.12 17.66-6.37 34.94-22.6 42.57A267.96 267.96 0 0 1 155 262c-41.33 0-80.5-9.32-115.48-25.98Z" clip-rule="evenodd"/><path fill="#20B000" d="m292 193.96 7.4-1.3-7.4 1.3Zm-22.6 42.57-3.19-6.79 3.2 6.79Zm-244.93-41.8C37.54 121.62 91.58 68.5 154.5 68.5v-15c-72.08 0-130.8 60.38-144.8 138.59l14.77 2.64ZM154.5 68.5c63.07 0 117.22 53.38 130.12 126.76l14.78-2.6C285.6 114.16 226.76 53.5 154.5 53.5v15Zm111.71 161.24A260.47 260.47 0 0 1 155 254.5v15c42.04 0 81.9-9.39 117.6-26.18l-6.39-13.58ZM155 254.5c-40.2 0-78.25-9.06-112.26-25.25l-6.45 13.54A275.46 275.46 0 0 0 155 269.5v-15Zm129.62-59.24c2.5 14.16-5.09 28.22-18.41 34.48l6.39 13.58c19.13-9 30.52-29.5 26.8-50.66l-14.78 2.6ZM9.71 192.09c-3.78 21.12 7.52 41.63 26.58 50.7l6.45-13.54c-13.28-6.32-20.8-20.39-18.27-34.52l-14.76-2.64Z"/><path fill="#1C8C00" fill-rule="evenodd" d="M68.36 217.2c-13.01-5.3-20.73-19.14-16.22-32.45C66.04 143.7 106.62 114 154.5 114s88.45 29.7 102.36 70.75c4.51 13.31-3.2 27.16-16.22 32.46A227.86 227.86 0 0 1 154.5 234c-30.47 0-59.55-5.97-86.14-16.8Z" clip-rule="evenodd"/><path fill="#fff" d="M189 198c13.8 0 25-8.95 25-20s-11.2-20-25-20-25 8.95-25 20 11.2 20 25 20Zm-71.57.01c13.8 0 25-8.95 25-20 0-11.04-11.2-20-25-20s-25 8.96-25 20c0 11.05 11.2 20 25 20Z"/></svg>
